layouts/icon-pack/spell_shock.svg

<?xml version="1.0" encoding="UTF-8"?>
<svg width="1200pt" height="1200pt" version="1.1" viewBox="0 0 1200 1200" xmlns="http://www.w3.org/2000/svg">
 <path d="m887.32 500.06h-254.93c-4.5 0-8.7852-1.9297-11.766-5.3008-2.9805-3.3711-4.3711-7.8594-3.8203-12.324l50.977-414.47c0.44141-3.8398-1.8711-7.4648-5.543-8.6758-3.668-1.2148-7.6875 0.3125-9.6211 3.6602l-351.56 616.97c-2.3555 4.125-2.3359 9.1953 0.050781 13.305 2.3828 4.1094 6.7773 6.6406 11.527 6.6406h254.98c4.5 0 8.7852 1.9297 11.766 5.3008 2.9805 3.3711 4.3711 7.8594 3.8203 12.324l-50.977 414.54c-0.44141 3.8398 1.8711 7.4648 5.543 8.6758 3.668 1.2148 7.6875-0.3125 9.6211-3.6602l351.56-616.97c2.3945-4.1367 2.3906-9.2422-0.011718-13.379-2.3984-4.1328-6.832-6.668-11.613-6.6367z" fill="#fff"/>
</svg>

<?xml version="1.0" encoding="UTF-8" standalone="no"?>
<!DOCTYPE svg PUBLIC "-//W3C//DTD SVG 1.1//EN" "http://www.w3.org/Graphics/SVG/1.1/DTD/svg11.dtd">
<svg width="100%" height="100%" viewBox="0 0 285 512" version="1.1" xmlns="http://www.w3.org/2000/svg" xmlns:xlink="http://www.w3.org/1999/xlink" xml:space="preserve" xmlns:serif="http://www.serif.com/" style="fill-rule:evenodd;clip-rule:evenodd;stroke-linejoin:round;stroke-miterlimit:2;">
    <g transform="matrix(1,0,0,1,-299.304,-58.8751)">
        <g transform="matrix(0.473091,0,0,0.473091,157.706,31.0219)">
            <path d="M887.32,500.06L632.39,500.06C627.89,500.06 623.605,498.13 620.624,494.759C617.644,491.388 616.253,486.9 616.804,482.435L667.781,67.965C668.222,64.125 665.91,60.5 662.238,59.289C658.57,58.075 654.55,59.602 652.617,62.95L301.057,679.92C298.701,684.045 298.721,689.115 301.107,693.225C303.49,697.334 307.885,699.865 312.634,699.865L567.614,699.865C572.114,699.865 576.4,701.795 579.38,705.166C582.361,708.537 583.751,713.025 583.201,717.49L532.224,1132.03C531.782,1135.87 534.095,1139.5 537.767,1140.71C541.435,1141.92 545.454,1140.39 547.388,1137.05L898.948,520.076C901.342,515.939 901.338,510.833 898.936,506.697C896.538,502.564 892.104,500.029 887.323,500.06L887.32,500.06Z" style="fill:white;fill-rule:nonzero;"/>
        </g>
    </g>
</svg>
